apps/www/public/images/logos/publicity/fixed-width/krea.svg

<svg width="180" height="60" viewBox="0 0 180 60" fill="none" xmlns="http://www.w3.org/2000/svg">
<path d="M123.463 21.9407H127.332L132.97 36.8606H129.143L128.237 34.2059H122.475L121.59 36.8606H117.845L123.463 21.9407ZM123.442 31.3454H127.29L125.377 25.6656L123.442 31.3454Z" fill="#7E7E7E"/>
<path d="M105.454 21.9407H116.896V25.0276H108.973V27.6412H116.464V30.7486H108.973V33.7532H116.896V36.8606H105.454V21.9407Z" fill="#7E7E7E"/>
<path d="M96.3232 31.2425H93.936V36.8606H90.417V21.9407H96.1586C96.9817 21.9407 97.7157 21.9819 98.3605 22.0642C99.0054 22.1465 99.6159 22.2906 100.192 22.4964C100.782 22.7022 101.269 22.9766 101.653 23.3196C102.051 23.6625 102.36 24.1084 102.579 24.6572C102.813 25.1923 102.929 25.8233 102.929 26.5505C102.929 28.5398 101.955 29.9117 100.007 30.6663L103.691 36.8606H99.5541L96.3232 31.2425ZM93.936 24.9041V28.2791H96.2615C97.2081 28.2791 97.9352 28.1625 98.4429 27.9293C98.9505 27.6823 99.2043 27.2364 99.2043 26.5916C99.2043 25.9468 98.9436 25.5078 98.4223 25.2746C97.9147 25.0276 97.1944 24.9041 96.2615 24.9041H93.936Z" fill="#7E7E7E"/>
<path d="M79.0596 27.847L84.4719 21.9407H88.7729L83.2577 27.8881L89.061 36.8606H84.8217L80.7882 30.5634L79.0596 32.4567V36.8606H75.5405V21.9407H79.0596V27.847Z" fill="#7E7E7E"/>
<path d="M50.4484 18.0302C52.4013 17.8928 54.1243 19.2525 54.3757 21.1294C54.6144 22.9123 53.3942 24.6368 51.5606 25.0405C51.1011 25.1417 50.5903 25.1136 50.104 25.1753C48.9205 25.3256 47.9071 25.8195 47.0638 26.657L47.0551 26.6615L47.0452 26.6607L47.0374 26.6548L47.0342 26.6457C47.0339 26.639 47.0356 26.6331 47.0394 26.628C47.0447 26.6204 47.0474 26.6121 47.0474 26.603C47.0358 25.2202 47.0322 23.546 47.0366 21.5803C47.0403 19.7229 48.5078 18.1663 50.4484 18.0302Z" fill="#7E7E7E"/>
<path d="M50.6539 33.5575C48.1682 33.538 46.3864 31.0923 47.251 28.8007C47.7279 27.5358 48.9054 26.6135 50.301 26.4683C50.7253 26.4243 51.2351 26.4356 51.6444 26.3594C53.7462 25.9688 55.3696 24.3614 55.6981 22.3148C55.7709 21.8607 55.7329 21.3194 55.8401 20.8376C56.3363 18.6078 58.8914 17.3565 61.0374 18.3646C62.1562 18.8909 62.9062 19.8844 63.0918 21.0713C63.13 21.3147 63.1424 21.6163 63.1289 21.9759C62.8855 28.4372 57.3672 33.611 50.6539 33.5575Z" fill="#7E7E7E"/>
<path d="M53.7845 34.5858C53.7732 34.5806 53.7656 34.5731 53.7615 34.5631L53.7605 34.5568L53.7623 34.5507L53.7664 34.5459C53.7681 34.5446 53.7701 34.5437 53.7723 34.5431C56.3225 33.9594 58.532 32.7852 60.4006 31.0202C60.4341 30.9885 60.4646 30.9909 60.4922 31.0275C60.7919 31.4222 61.105 31.8464 61.3558 32.2516C62.3867 33.9157 62.9709 35.7182 63.108 37.6591C63.1356 38.0504 63.1442 38.3527 63.1339 38.566C63.0413 40.4519 61.463 41.9735 59.4734 41.9849C57.7118 41.9944 56.1631 40.7926 55.8285 39.1113C55.7496 38.7134 55.774 38.1621 55.7068 37.7416C55.4994 36.4476 54.8672 35.4005 53.8099 34.5999C53.8052 34.5959 53.7968 34.5912 53.7845 34.5858Z" fill="#7E7E7E"/>
<path d="M50.0579 41.9306C48.5618 41.6702 47.3579 40.5084 47.0901 39.0629C47.0534 38.8651 47.0351 38.5637 47.0351 38.1587C47.0348 36.5645 47.0345 34.9701 47.0342 33.3755C47.0342 33.3598 47.0401 33.3573 47.052 33.3678C48.0303 34.2375 49.0584 34.7688 50.4014 34.8573C50.4014 34.8573 50.5229 34.8615 50.7623 34.869C52.5107 34.9249 53.9918 36.0708 54.3334 37.7354C54.839 40.1967 52.6108 42.3748 50.0579 41.9306Z" fill="#7E7E7E"/>
</svg>

<svg xmlns="http://www.w3.org/2000/svg" width="180" height="60" fill="none" viewBox="0 0 180 60"><path fill="#7e7e7e" d="M123.463 21.94h3.869l5.638 14.92h-3.827l-.906-2.654h-5.762l-.885 2.655h-3.745zm-.021 9.405h3.848l-1.913-5.68zM105.454 21.94h11.442v3.088h-7.923v2.613h7.491v3.108h-7.491v3.004h7.923v3.108h-11.442zM96.323 31.243h-2.387v5.618h-3.519V21.94h5.742q1.235 0 2.201.123a8.7 8.7 0 0 1 1.832.432q.885.309 1.461.824.597.514.926 1.337.35.802.35 1.893 0 2.985-2.922 4.116l3.684 6.195h-4.137zm-2.387-6.339v3.375h2.325q1.42 0 2.182-.35.761-.37.761-1.337 0-.968-.782-1.317-.761-.37-2.16-.37zM79.06 27.847l5.412-5.906h4.3l-5.514 5.947 5.803 8.973h-4.24l-4.033-6.298-1.728 1.894v4.404h-3.52V21.94h3.52zM50.448 18.03c1.953-.137 3.676 1.223 3.928 3.1.238 1.782-.982 3.507-2.815 3.91-.46.102-.97.074-1.457.135a5.1 5.1 0 0 0-3.04 1.482l-.009.005-.01-.001-.008-.006-.003-.01q0-.01.005-.017a.04.04 0 0 0 .008-.025 484 484 0 0 1-.01-5.023c.003-1.857 1.47-3.414 3.411-3.55"/><path fill="#7e7e7e" d="M50.654 33.558c-2.486-.02-4.268-2.466-3.403-4.757a3.67 3.67 0 0 1 3.05-2.333c.424-.044.934-.032 1.343-.109 2.102-.39 3.726-1.998 4.054-4.044.073-.454.035-.996.142-1.477.496-2.23 3.051-3.482 5.197-2.473 1.12.526 1.87 1.52 2.055 2.706q.057.366.037.905c-.243 6.461-5.762 11.635-12.475 11.581M53.785 34.586a.04.04 0 0 1-.023-.023l-.002-.006.002-.006.004-.005.006-.003q3.825-.876 6.629-3.523.05-.049.091.008c.3.394.613.818.864 1.224a11.7 11.7 0 0 1 1.752 5.407q.041.587.026.907c-.093 1.886-1.671 3.407-3.66 3.419-1.762.01-3.31-1.192-3.645-2.874-.08-.398-.055-.949-.122-1.37q-.312-1.94-1.897-3.141zM50.058 41.93c-1.496-.26-2.7-1.422-2.968-2.867q-.055-.297-.055-.904v-4.783q0-.024.017-.008c.978.87 2.006 1.4 3.35 1.49l.36.011c1.749.056 3.23 1.202 3.571 2.866.506 2.462-1.722 4.64-4.275 4.196"/></svg>
